components/Common/Svg/svgs/titledUIKit.svg

<svg
  width="60"
  height="138"
  viewBox="0 0 60 138"
  fill="none"
  xmlns="http://www.w3.org/2000/svg"
>
  <g clip-path="url(#clip0_5402_15233)">
    <path
      d="M12.988 115.454V123.392C12.988 124.508 13.258 125.336 13.798 125.876C14.35 126.416 15.112 126.686 16.084 126.686C17.044 126.686 17.794 126.416 18.334 125.876C18.886 125.336 19.162 124.508 19.162 123.392V115.454H20.8V123.374C20.8 124.418 20.59 125.3 20.17 126.02C19.75 126.728 19.18 127.256 18.46 127.604C17.752 127.952 16.954 128.126 16.066 128.126C15.178 128.126 14.374 127.952 13.654 127.604C12.946 127.256 12.382 126.728 11.962 126.02C11.554 125.3 11.35 124.418 11.35 123.374V115.454H12.988ZM25.1705 115.454V128H23.5325V115.454H25.1705ZM34.7662 128L29.6002 122.276V128H27.9622V115.454H29.6002V121.268L34.7842 115.454H36.8542L31.1662 121.736L36.9082 128H34.7662ZM39.5836 116.534C39.2716 116.534 39.0076 116.426 38.7916 116.21C38.5756 115.994 38.4676 115.73 38.4676 115.418C38.4676 115.106 38.5756 114.842 38.7916 114.626C39.0076 114.41 39.2716 114.302 39.5836 114.302C39.8836 114.302 40.1356 114.41 40.3396 114.626C40.5556 114.842 40.6636 115.106 40.6636 115.418C40.6636 115.73 40.5556 115.994 40.3396 116.21C40.1356 116.426 39.8836 116.534 39.5836 116.534ZM40.3756 118.136V128H38.7376V118.136H40.3756ZM45.1653 119.486V125.3C45.1653 125.78 45.2673 126.122 45.4713 126.326C45.6753 126.518 46.0293 126.614 46.5332 126.614H47.7393V128H46.2633C45.3513 128 44.6673 127.79 44.2113 127.37C43.7553 126.95 43.5273 126.26 43.5273 125.3V119.486H42.2493V118.136H43.5273V115.652H45.1653V118.136H47.7393V119.486H45.1653Z"
      fill="#A0A0A0"
    ></path>
    <g clip-path="url(#clip1_5402_15233)">
      <path
        d="M41.2266 15.7024L29.6749 9L17.6196 16.4767L29.3324 22.9378L41.2266 15.7024ZM46.7506 18.5885L34.8213 25.8339L48.3419 33.6375V54.2525L30.1079 64.6003L12.0855 54.2525V38.1627L0 32.1693V61.2918L29.6749 78.89L60.4273 61.4225V26.4775L46.7506 18.5885Z"
        fill="#A9A9A9"
      ></path>
    </g>
  </g>
  <defs>
    <clipPath id="clip0_5402_15233">
      <rect width="60" height="138" fill="white"></rect>
    </clipPath>
    <clipPath id="clip1_5402_15233">
      <rect
        width="60.4273"
        height="70"
        fill="white"
        transform="translate(0 9)"
      ></rect>
    </clipPath>
  </defs>
</svg>

<svg width="60" height="138" viewBox="0 0 60 138" fill="none" xmlns="http://www.w3.org/2000/svg"><g clip-path="url(#a)"><path d="M12.988 115.454v7.938c0 1.116.27 1.944.81 2.484.552.54 1.314.81 2.286.81.96 0 1.71-.27 2.25-.81.552-.54.828-1.368.828-2.484v-7.938H20.8v7.92c0 1.044-.21 1.926-.63 2.646a3.958 3.958 0 0 1-1.71 1.584c-.708.348-1.506.522-2.394.522-.888 0-1.692-.174-2.412-.522a3.981 3.981 0 0 1-1.692-1.584c-.408-.72-.612-1.602-.612-2.646v-7.92h1.638Zm12.183 0V128h-1.639v-12.546h1.639ZM34.766 128l-5.166-5.724V128h-1.638v-12.546H29.6v5.814l5.184-5.814h2.07l-5.688 6.282L36.908 128h-2.142Zm4.818-11.466c-.312 0-.576-.108-.792-.324a1.077 1.077 0 0 1-.324-.792c0-.312.108-.576.324-.792.216-.216.48-.324.792-.324.3 0 .552.108.756.324.216.216.324.48.324.792 0 .312-.108.576-.324.792a.998.998 0 0 1-.756.324Zm.792 1.602V128h-1.638v-9.864h1.638Zm4.79 1.35v5.814c0 .48.101.822.305 1.026.204.192.558.288 1.062.288h1.206V128h-1.476c-.912 0-1.596-.21-2.052-.63-.456-.42-.684-1.11-.684-2.07v-5.814H42.25v-1.35h1.278v-2.484h1.638v2.484h2.574v1.35h-2.574Z" fill="#A0A0A0"/><g clip-path="url(#b)"><path d="M41.227 15.702 29.675 9 17.62 16.477l11.712 6.46 11.895-7.235Zm5.524 2.886-11.93 7.246 13.52 7.804v20.614L30.109 64.6 12.085 54.253v-16.09L0 32.169v29.123L29.675 78.89l30.752-17.468V26.478l-13.676-7.89Z" fill="#A9A9A9"/></g></g><defs><clipPath id="a"><path fill="#fff" d="M0 0h60v138H0z"/></clipPath><clipPath id="b"><path fill="#fff" transform="translate(0 9)" d="M0 0h60.427v70H0z"/></clipPath></defs></svg>
